icons/folder_type_package_opened.svg

<svg xmlns="http://www.w3.org/2000/svg" viewBox="0 0 32 32"><path d="M27.4 5.5h-9.2l-2.1 4.2H4.3v16.8h25.2v-21Zm0 18.7H6.6V11.8h20.8Zm0-14.5h-8.2l1-2.1h7.1v2.1Z" style="fill:#ddc07a"/><path d="M25.7 13.7H.5l3.8 12.8h25.2l-3.8-12.8z" style="fill:#ddc07a"/><path d="M12.78 10.008c1.689-.016 3.381 0 5.071-.006-.4 1.726-.786 3.456-1.184 5.183H8.952c-.244 0-.488.008-.732-.01 1.515-1.727 3.047-3.439 4.56-5.167ZM21.358 10h5.056c1.518 1.727 3.052 3.441 4.566 5.172-.974.021-1.95 0-2.925.009h-5.524c-.384-1.726-.793-3.449-1.173-5.181Z" style="fill:#f2e6c9"/><path d="M17.85 10h3.508c.379 1.73.788 3.453 1.174 5.181h-5.866c.399-1.723.784-3.453 1.184-5.181Z" style="fill:#efc75e"/><path d="M8.219 15.174c.244.018.488.009.732.01h7.715c0 1.825 0 3.65.006 5.475a1.983 1.983 0 0 0 .208.015h5.482c.054 0 .109-.006.163-.011.016-1.826 0-3.654.007-5.48h5.524c.975-.005 1.951.012 2.925-.009v15.824L8.22 31q-.003-7.914-.001-15.826Z" style="fill:#e7bf55"/><path d="M16.666 15.185h5.866c-.007 1.826.009 3.654-.007 5.48a2.23 2.23 0 0 1-.163.011H16.88a1.983 1.983 0 0 1-.208-.015c-.01-1.826-.002-3.652-.006-5.476Z" style="fill:#dbb551"/><path d="M9.881 25.85h7.617v2.933H9.881z" style="fill:#f2f2f2"/></svg>

<svg xmlns="http://www.w3.org/2000/svg" viewBox="0 0 32 32"><title>folder_type_package_opened</title><path d="M27.4,5.5H18.2L16.1,9.7H4.3V26.5H29.5V5.5Zm0,18.7H6.6V11.8H27.4Zm0-14.5H19.2l1-2.1h7.1V9.7Z" style="fill:#ddc07a"/><polygon points="25.7 13.7 0.5 13.7 4.3 26.5 29.5 26.5 25.7 13.7" style="fill:#ddc07a"/><path d="M12.78,10.008c1.689-.016,3.381,0,5.071-.006-.4,1.726-.786,3.456-1.184,5.183q-3.858,0-7.715,0c-.244,0-.488.008-.732-.01C9.735,13.448,11.267,11.736,12.78,10.008Z" style="fill:#f2e6c9"/><path d="M21.358,10q2.528,0,5.056,0c1.518,1.727,3.052,3.441,4.566,5.172-.974.021-1.95,0-2.925.009q-2.762,0-5.524,0C22.147,13.455,21.738,11.732,21.358,10Z" style="fill:#f2e6c9"/><path d="M17.85,10q1.754,0,3.508,0c.379,1.73.788,3.453,1.174,5.181-1.955,0-3.911,0-5.866,0C17.065,13.458,17.45,11.728,17.85,10Z" style="fill:#efc75e"/><path d="M8.219,15.174c.244.018.488.009.732.01q3.858,0,7.715,0c0,1.825,0,3.65.006,5.475a1.983,1.983,0,0,0,.208.015h5.482c.054,0,.109-.006.163-.011.016-1.826,0-3.654.007-5.48q2.761,0,5.524,0c.975-.005,1.951.012,2.925-.009q0,7.912,0,15.824Q19.6,31,8.22,31,8.217,23.086,8.219,15.174Z" style="fill:#e7bf55"/><path d="M16.666,15.185c1.955,0,3.911,0,5.866,0-.007,1.826.009,3.654-.007,5.48-.054.006-.109.009-.163.011H16.88a1.983,1.983,0,0,1-.208-.015C16.662,18.835,16.67,17.009,16.666,15.185Z" style="fill:#dbb551"/><rect x="9.881" y="25.85" width="7.617" height="2.933" style="fill:#f2f2f2"/></svg>
